Newaita-dark/apps/64/qt4logo.svg

<svg height="64pt" viewBox="0 0 64 64" width="64pt" xmlns="http://www.w3.org/2000/svg" xmlns:xlink="http://www.w3.org/1999/xlink"><linearGradient id="a"><stop offset="0" stop-opacity=".313726"/><stop offset=".222222" stop-opacity=".27451"/><stop offset="1" stop-opacity="0"/></linearGradient><radialGradient id="b" cx="450.908936" cy="189.579361" gradientTransform="matrix(.00000035 -.156265 -.281277 -.0000002 89.046304 127.190659)" gradientUnits="userSpaceOnUse" r="21.166656" xlink:href="#a"/><radialGradient id="c" cx="450.908936" cy="189.579361" gradientTransform="matrix(-.00000035 .156265 .281277 .0000002 -25.540237 -15.054964)" gradientUnits="userSpaceOnUse" r="21.166656" xlink:href="#a"/><radialGradient id="d" cx="450.908936" cy="189.579361" gradientTransform="matrix(-.00000035 -.156265 .281277 -.0000002 -25.540237 127.190659)" gradientUnits="userSpaceOnUse" r="21.166656" xlink:href="#a"/><radialGradient id="e" cx="450.908936" cy="189.579361" gradientTransform="matrix(.00000035 .156265 -.281277 .0000002 89.0463 -15.054965)" gradientUnits="userSpaceOnUse" r="21.166656" xlink:href="#a"/><linearGradient id="f" gradientTransform="matrix(.0267201 0 0 .125012 24.930772 26.877567)" gradientUnits="userSpaceOnUse" x1="255.323059" x2="255.323044" y1="233.5" y2="254.666656"><stop offset="0" stop-opacity=".27451"/><stop offset="1" stop-opacity="0"/></linearGradient><linearGradient id="g" gradientUnits="userSpaceOnUse" x1="254" x2="254" y1="-168.666672" y2="233.5"><stop offset="0" stop-color="#66bb6a"/><stop offset="1" stop-color="#4caf50"/></linearGradient><path d="m36.382812 56.066406h5.292969v-2.644531h-5.292969zm0 0" fill="url(#b)"/><path d="m27.121094 56.066406h-5.289063v2.648438h5.289063zm0 0" fill="url(#c)"/><path d="m27.121094 56.066406h-5.289063v-2.644531h5.289063zm0 0" fill="url(#d)"/><path d="m36.382812 56.066406h5.292969v2.648438h-5.292969zm0 0" fill="url(#e)"/><path d="m27.121094 55.40625h9.261718v3.308594h-9.261718zm0 0" fill="url(#f)"/><path d="m254.006994-168.660675c111.051895 0 201.074548 90.022653 201.074548 201.074548s-90.022653 201.074548-201.074548 201.074548c-111.051896 0-201.105796-90.022653-201.105796-201.074548s90.0539-201.074548 201.105796-201.074548zm0 0" fill="url(#g)" stroke="#333" stroke-linecap="round" stroke-width="3" transform="matrix(.125012 0 0 .125012 0 26.877566)"/><path d="m31.753906 56.066406c-13.925781 0-25.140625-11.210937-25.140625-25.136718 0-.082032.003907-.164063.003907-.246094.128906 13.8125 11.292968 24.890625 25.136718 24.890625s25.003906-11.078125 25.136719-24.890625v.246094c0 13.925781-11.210937 25.136718-25.136719 25.136718zm0 0" fill-opacity=".196078"/><path d="m31.753906 5.792969c-13.925781 0-25.140625 11.210937-25.140625 25.136719 0 .082031.003907.164062.003907.246093.128906-13.8125 11.292968-24.890625 25.136718-24.890625s25.003906 11.078125 25.136719 24.890625c0-.082031 0-.164062 0-.246093 0-13.925782-11.210937-25.136719-25.136719-25.136719zm0 0" fill="#fff" fill-opacity=".392157"/><path d="m31.753906 5.605469c-14.027344 0-25.328125 11.296875-25.328125 25.324219 0 14.027343 11.300781 25.324218 25.328125 25.324218s25.324219-11.296875 25.324219-25.324218c0-14.027344-11.296875-25.324219-25.324219-25.324219zm0 .375c13.824219 0 24.949219 11.125 24.949219 24.949219 0 13.824218-11.125 24.949218-24.949219 24.949218-13.828125 0-24.953125-11.125-24.953125-24.949218 0-13.824219 11.125-24.949219 24.953125-24.949219zm0 0" fill="#212121"/><path d="m23.816406 25.90625c-1.863281 0-3.296875 1.433594-3.296875 3.292969v1.457031c0-1.859375 1.433594-3.292969 3.296875-3.292969 1.859375 0 3.292969 1.433594 3.292969 3.292969v-1.457031c0-1.859375-1.433594-3.292969-3.292969-3.292969zm-7.289062 5.941406v1.457032c0 4.003906 3.285156 7.289062 7.289062 7.289062 1.179688 0 2.300782-.289062 3.292969-.796875v-1.457031c-.992187.507812-2.113281.796875-3.292969.796875-4.003906 0-7.289062-3.285157-7.289062-7.289063zm10.582031 15.875v1.457032c-.007813.71875.371094 1.386718.992187 1.75.621094.359374 1.390626.359374 2.011719 0 .621094-.363282 1-1.03125.992188-1.75v-1.457032c.007812.71875-.371094 1.386719-.992188 1.75-.621093.363282-1.390625.363282-2.011719 0-.621093-.363281-1-1.03125-.992187-1.75zm0 0" fill-opacity=".235294"/><path d="m23.816406 22.316406c-4.003906 0-7.289062 3.285156-7.289062 7.289063v2.648437c0 4.003906 3.285156 7.289063 7.289062 7.289063 1.179688 0 2.300782-.289063 3.292969-.796875v9.382812c-.007813.71875.371094 1.386719.992187 1.75.621094.363282 1.390626.363282 2.011719 0 .621094-.363281 1-1.03125.992188-1.75v-18.523437c0-4.003907-3.285157-7.289063-7.289063-7.289063zm0 3.996094c1.859375 0 3.292969 1.433594 3.292969 3.292969v2.648437c0 1.859375-1.433594 3.292969-3.292969 3.292969-1.863281 0-3.296875-1.433594-3.296875-3.292969v-2.648437c0-1.859375 1.433594-3.292969 3.296875-3.292969zm0 0" fill="#e0e0e0"/><path d="m44.214844 21.992188c-.300782.773437-1.050782 1.277343-1.878906 1.265624h-5.941407v1.457032h5.941407c.664062.007812 1.285156-.316406 1.664062-.863282.375-.542968.457031-1.242187.214844-1.859374zm-11.8125.441406c-.027344.191406-.027344.382812 0 .574218zm0 8.089844v1.457031c0 2.980469.773437 5.246093 2.230468 6.722656 1.453126 1.472656 3.390626 1.941406 5.058594 1.941406 1.667969 0 3.605469-.46875 5.058594-1.941406.566406-.5625.746094-1.40625.457031-2.148437-.101562.257812-.257812.492187-.457031.691406-1.453125 1.472656-3.390625 1.941406-5.058594 1.941406-1.667968 0-3.605468-.46875-5.058594-1.941406-1.457031-1.476563-2.230468-3.742188-2.230468-6.722656zm0 0" fill-opacity=".235294"/><path d="m23.816406 22.316406c-4.003906 0-7.289062 3.285156-7.289062 7.289063v1.335937c0-4.003906 3.285156-7.289062 7.289062-7.289062s7.289063 3.285156 7.289063 7.289062v-1.335937c0-4.003907-3.285157-7.289063-7.289063-7.289063zm-3.296875 9.9375v1.335938c0 1.859375 1.433594 3.292968 3.296875 3.292968 1.859375 0 3.292969-1.433593 3.292969-3.292968v-1.335938c0 1.859375-1.433594 3.292969-3.292969 3.292969-1.863281 0-3.296875-1.433594-3.296875-3.292969zm0 0" fill="#eee"/><path d="m34.367188 11.707031c-1.101563.015625-1.980469.921875-1.964844 2.023438v7.652343c-.027344.191407-.027344.382813 0 .574219v8.972657c0 2.980468.773437 5.246093 2.230468 6.722656 1.453126 1.472656 3.390626 1.941406 5.058594 1.941406 1.667969 0 3.605469-.46875 5.058594-1.941406.511719-.507813.714844-1.25.527344-1.945313-.1875-.691406-.734375-1.234375-1.433594-1.410156-.695312-.179687-1.4375.03125-1.933594.546875-.53125.539062-1.242187.757812-2.21875.757812-.976562 0-1.6875-.21875-2.21875-.757812-.527344-.535156-1.078125-1.601562-1.078125-3.914062v-7.265626h5.941407c.71875.007813 1.386718-.371093 1.746093-.992187.363281-.621094.363281-1.386719 0-2.007813-.359375-.621093-1.027343-1-1.746093-.992187h-5.941407v-5.941406c.007813-.539063-.203125-1.058594-.582031-1.441407-.382812-.382812-.902344-.59375-1.445312-.582031zm0 0" fill="#e0e0e0"/><path d="m34.367188 11.707031c-1.101563.015625-1.980469.921875-1.964844 2.023438v1.363281c-.015625-1.101562.863281-2.007812 1.964844-2.023438.542968-.007812 1.0625.199219 1.445312.582032.378906.382812.589844.902344.582031 1.441406v-1.363281c.007813-.539063-.203125-1.058594-.582031-1.441407-.382812-.382812-.902344-.59375-1.445312-.582031zm2.027343 7.964844v1.363281h5.941407c.847656-.007812 1.609374.519532 1.898437 1.316406.222656-.617187.128906-1.300781-.25-1.835937-.375-.535156-.992187-.851563-1.648437-.84375zm-3.992187 1.710937c-.027344.191407-.027344.382813 0 .574219zm3.992187 9.546876v1.363281c0 2.3125.550781 3.378906 1.078125 3.917969.53125.535156 1.242188.753906 2.21875.753906.976563 0 1.6875-.21875 2.21875-.753906.476563-.496094 1.175782-.710938 1.851563-.570313.671875.144531 1.226562.625 1.460937 1.269531.320313-.882812-.023437-1.871094-.824218-2.371094-.796876-.496093-1.835938-.371093-2.488282.304688-.53125.539062-1.242187.757812-2.21875.757812-.976562 0-1.6875-.21875-2.21875-.757812-.527344-.535156-1.078125-1.601562-1.078125-3.914062zm0 0" fill="#eee"/><g fill="none" stroke="#212121" stroke-linecap="round" stroke-linejoin="round" stroke-width="3" transform="matrix(.125012 0 0 .125012 0 26.877566)"><path d="m190.513057-36.485797c-32.028192 0-58.306932 26.27874-58.306932 58.306932v21.185477c0 32.028191 26.27874 58.306932 58.306932 58.306932 9.436599 0 18.404492-2.31228 26.341234-6.374392v75.055333c-.062494 5.749451 2.968467 11.092691 7.936743 13.998663 4.968275 2.905973 11.123937 2.905973 16.092213 0 4.968275-2.905972 7.999236-8.249212 7.936742-13.998663v-148.17335c0-32.028192-26.278741-58.306932-58.306932-58.306932zm0 31.965697c14.87358 0 26.341234 11.467655 26.341234 26.341235v21.185477c0 14.873579-11.467654 26.341234-26.341234 26.341234-14.904827 0-26.372482-11.467655-26.372482-26.341234v-21.185477c0-14.87358 11.467655-26.341235 26.372482-26.341235zm0 0"/><path d="m274.911247-121.352693c-8.811658.124988-15.842237 7.374296-15.717249 16.185954v61.212905c-.218729 1.531104-.218729 3.062207 0 4.593311v71.774396c0 23.841473 6.186909 41.964743 17.842046 53.776115 11.62389 11.780125 27.12241 15.529767 40.464886 15.529767s28.840996-3.749642 40.464886-15.529767c4.093359-4.062112 5.718204-9.999045 4.218347-15.561014-1.499857-5.530722-5.874439-9.874057-11.467655-11.280173-5.561969-1.437363-11.498902.249976-15.467273 4.374582-4.249594 4.312088-9.936551 6.061921-17.748305 6.061921s-13.498711-1.749833-17.748305-6.061921c-4.218347-4.280841-8.624176-12.811276-8.624176-31.30951v-58.11945h47.526711c5.749451.062494 11.092691-2.968466 13.967416-7.936742 2.905973-4.968275 2.905973-11.09269 0-16.060966-2.874725-4.968276-8.217965-7.999236-13.967416-7.936742h-47.526711v-47.526712c.062494-4.312088-1.624845-8.467941-4.655806-11.530148-3.062207-3.062208-7.21806-4.749547-11.561396-4.655806zm0 0"/></g></svg>

<?xml version="1.0" encoding="UTF-8"?>
<svg xmlns="http://www.w3.org/2000/svg" xmlns:xlink="http://www.w3.org/1999/xlink" width="64pt" height="64pt" viewBox="0 0 64 64" version="1.1">
<defs>
<radialGradient id="radial0" gradientUnits="userSpaceOnUse" cx="450.908936" cy="189.579361" fx="450.908936" fy="189.579361" r="21.166656" gradientTransform="matrix(0.000000348341,-0.156265,-0.281277,-0.000000203077,89.046304,127.190659)">
<stop offset="0" style="stop-color:rgb(0%,0%,0%);stop-opacity:0.313726;"/>
<stop offset="0.222222" style="stop-color:rgb(0%,0%,0%);stop-opacity:0.27451;"/>
<stop offset="1" style="stop-color:rgb(0%,0%,0%);stop-opacity:0;"/>
</radialGradient>
<radialGradient id="radial1" gradientUnits="userSpaceOnUse" cx="450.908936" cy="189.579361" fx="450.908936" fy="189.579361" r="21.166656" gradientTransform="matrix(-0.000000348341,0.156265,0.281277,0.000000203077,-25.540237,-15.054964)">
<stop offset="0" style="stop-color:rgb(0%,0%,0%);stop-opacity:0.313726;"/>
<stop offset="0.222222" style="stop-color:rgb(0%,0%,0%);stop-opacity:0.27451;"/>
<stop offset="1" style="stop-color:rgb(0%,0%,0%);stop-opacity:0;"/>
</radialGradient>
<radialGradient id="radial2" gradientUnits="userSpaceOnUse" cx="450.908936" cy="189.579361" fx="450.908936" fy="189.579361" r="21.166656" gradientTransform="matrix(-0.000000348341,-0.156265,0.281277,-0.000000203077,-25.540237,127.190659)">
<stop offset="0" style="stop-color:rgb(0%,0%,0%);stop-opacity:0.313726;"/>
<stop offset="0.222222" style="stop-color:rgb(0%,0%,0%);stop-opacity:0.27451;"/>
<stop offset="1" style="stop-color:rgb(0%,0%,0%);stop-opacity:0;"/>
</radialGradient>
<radialGradient id="radial3" gradientUnits="userSpaceOnUse" cx="450.908936" cy="189.579361" fx="450.908936" fy="189.579361" r="21.166656" gradientTransform="matrix(0.000000348341,0.156265,-0.281277,0.000000203077,89.0463,-15.054965)">
<stop offset="0" style="stop-color:rgb(0%,0%,0%);stop-opacity:0.313726;"/>
<stop offset="0.222222" style="stop-color:rgb(0%,0%,0%);stop-opacity:0.27451;"/>
<stop offset="1" style="stop-color:rgb(0%,0%,0%);stop-opacity:0;"/>
</radialGradient>
<linearGradient id="linear0" gradientUnits="userSpaceOnUse" x1="255.323059" y1="233.5" x2="255.323044" y2="254.666656" gradientTransform="matrix(0.0267201,0,0,0.125012,24.930772,26.877567)">
<stop offset="0" style="stop-color:rgb(0%,0%,0%);stop-opacity:0.27451;"/>
<stop offset="1" style="stop-color:rgb(0%,0%,0%);stop-opacity:0;"/>
</linearGradient>
<linearGradient id="linear1" gradientUnits="userSpaceOnUse" x1="254" y1="-168.666672" x2="254" y2="233.5" >
<stop offset="0" style="stop-color:rgb(40.000001%,73.333335%,41.568628%);stop-opacity:1;"/>
<stop offset="1" style="stop-color:rgb(29.803923%,68.627453%,31.37255%);stop-opacity:1;"/>
</linearGradient>
</defs>
<g id="surface1">
<path style=" stroke:none;fill-rule:nonzero;fill:url(#radial0);" d="M 36.382812 56.066406 L 41.675781 56.066406 L 41.675781 53.421875 L 36.382812 53.421875 Z M 36.382812 56.066406 "/>
<path style=" stroke:none;fill-rule:nonzero;fill:url(#radial1);" d="M 27.121094 56.066406 L 21.832031 56.066406 L 21.832031 58.714844 L 27.121094 58.714844 Z M 27.121094 56.066406 "/>
<path style=" stroke:none;fill-rule:nonzero;fill:url(#radial2);" d="M 27.121094 56.066406 L 21.832031 56.066406 L 21.832031 53.421875 L 27.121094 53.421875 Z M 27.121094 56.066406 "/>
<path style=" stroke:none;fill-rule:nonzero;fill:url(#radial3);" d="M 36.382812 56.066406 L 41.675781 56.066406 L 41.675781 58.714844 L 36.382812 58.714844 Z M 36.382812 56.066406 "/>
<path style=" stroke:none;fill-rule:nonzero;fill:url(#linear0);" d="M 27.121094 55.40625 L 36.382812 55.40625 L 36.382812 58.714844 L 27.121094 58.714844 Z M 27.121094 55.40625 "/>
<path style="fill-rule:nonzero;fill:url(#linear1);stroke-width:3;stroke-linecap:round;stroke-linejoin:miter;stroke:rgb(20%,20%,20%);stroke-opacity:1;stroke-miterlimit:4;" d="M 254.006994 -168.660675 C 365.058889 -168.660675 455.081542 -78.638022 455.081542 32.413873 C 455.081542 143.465768 365.058889 233.488421 254.006994 233.488421 C 142.955098 233.488421 52.901198 143.465768 52.901198 32.413873 C 52.901198 -78.638022 142.955098 -168.660675 254.006994 -168.660675 Z M 254.006994 -168.660675 " transform="matrix(0.125012,0,0,0.125012,0,26.877566)"/>
<path style=" stroke:none;fill-rule:nonzero;fill:rgb(0%,0%,0%);fill-opacity:0.196078;" d="M 31.753906 56.066406 C 17.828125 56.066406 6.613281 44.855469 6.613281 30.929688 C 6.613281 30.847656 6.617188 30.765625 6.617188 30.683594 C 6.746094 44.496094 17.910156 55.574219 31.753906 55.574219 C 45.597656 55.574219 56.757812 44.496094 56.890625 30.683594 C 56.890625 30.765625 56.890625 30.847656 56.890625 30.929688 C 56.890625 44.855469 45.679688 56.066406 31.753906 56.066406 Z M 31.753906 56.066406 "/>
<path style=" stroke:none;fill-rule:nonzero;fill:rgb(100%,100%,100%);fill-opacity:0.392157;" d="M 31.753906 5.792969 C 17.828125 5.792969 6.613281 17.003906 6.613281 30.929688 C 6.613281 31.011719 6.617188 31.09375 6.617188 31.175781 C 6.746094 17.363281 17.910156 6.285156 31.753906 6.285156 C 45.597656 6.285156 56.757812 17.363281 56.890625 31.175781 C 56.890625 31.09375 56.890625 31.011719 56.890625 30.929688 C 56.890625 17.003906 45.679688 5.792969 31.753906 5.792969 Z M 31.753906 5.792969 "/>
<path style=" stroke:none;fill-rule:nonzero;fill:rgb(12.941177%,12.941177%,12.941177%);fill-opacity:1;" d="M 31.753906 5.605469 C 17.726562 5.605469 6.425781 16.902344 6.425781 30.929688 C 6.425781 44.957031 17.726562 56.253906 31.753906 56.253906 C 45.78125 56.253906 57.078125 44.957031 57.078125 30.929688 C 57.078125 16.902344 45.78125 5.605469 31.753906 5.605469 Z M 31.753906 5.980469 C 45.578125 5.980469 56.703125 17.105469 56.703125 30.929688 C 56.703125 44.753906 45.578125 55.878906 31.753906 55.878906 C 17.925781 55.878906 6.800781 44.753906 6.800781 30.929688 C 6.800781 17.105469 17.925781 5.980469 31.753906 5.980469 Z M 31.753906 5.980469 "/>
<path style=" stroke:none;fill-rule:nonzero;fill:rgb(0%,0%,0%);fill-opacity:0.235294;" d="M 23.816406 25.90625 C 21.953125 25.90625 20.519531 27.339844 20.519531 29.199219 L 20.519531 30.65625 C 20.519531 28.796875 21.953125 27.363281 23.816406 27.363281 C 25.675781 27.363281 27.109375 28.796875 27.109375 30.65625 L 27.109375 29.199219 C 27.109375 27.339844 25.675781 25.90625 23.816406 25.90625 Z M 16.527344 31.847656 L 16.527344 33.304688 C 16.527344 37.308594 19.8125 40.59375 23.816406 40.59375 C 24.996094 40.59375 26.117188 40.304688 27.109375 39.796875 L 27.109375 38.339844 C 26.117188 38.847656 24.996094 39.136719 23.816406 39.136719 C 19.8125 39.136719 16.527344 35.851562 16.527344 31.847656 Z M 27.109375 47.722656 L 27.109375 49.179688 C 27.101562 49.898438 27.480469 50.566406 28.101562 50.929688 C 28.722656 51.289062 29.492188 51.289062 30.113281 50.929688 C 30.734375 50.566406 31.113281 49.898438 31.105469 49.179688 L 31.105469 47.722656 C 31.113281 48.441406 30.734375 49.109375 30.113281 49.472656 C 29.492188 49.835938 28.722656 49.835938 28.101562 49.472656 C 27.480469 49.109375 27.101562 48.441406 27.109375 47.722656 Z M 27.109375 47.722656 "/>
<path style=" stroke:none;fill-rule:nonzero;fill:rgb(87.843138%,87.843138%,87.843138%);fill-opacity:1;" d="M 23.816406 22.316406 C 19.8125 22.316406 16.527344 25.601562 16.527344 29.605469 L 16.527344 32.253906 C 16.527344 36.257812 19.8125 39.542969 23.816406 39.542969 C 24.996094 39.542969 26.117188 39.253906 27.109375 38.746094 L 27.109375 48.128906 C 27.101562 48.847656 27.480469 49.515625 28.101562 49.878906 C 28.722656 50.242188 29.492188 50.242188 30.113281 49.878906 C 30.734375 49.515625 31.113281 48.847656 31.105469 48.128906 L 31.105469 29.605469 C 31.105469 25.601562 27.820312 22.316406 23.816406 22.316406 Z M 23.816406 26.3125 C 25.675781 26.3125 27.109375 27.746094 27.109375 29.605469 L 27.109375 32.253906 C 27.109375 34.113281 25.675781 35.546875 23.816406 35.546875 C 21.953125 35.546875 20.519531 34.113281 20.519531 32.253906 L 20.519531 29.605469 C 20.519531 27.746094 21.953125 26.3125 23.816406 26.3125 Z M 23.816406 26.3125 "/>
<path style=" stroke:none;fill-rule:nonzero;fill:rgb(0%,0%,0%);fill-opacity:0.235294;" d="M 44.214844 21.992188 C 43.914062 22.765625 43.164062 23.269531 42.335938 23.257812 L 36.394531 23.257812 L 36.394531 24.714844 L 42.335938 24.714844 C 43 24.722656 43.621094 24.398438 44 23.851562 C 44.375 23.308594 44.457031 22.609375 44.214844 21.992188 Z M 32.402344 22.433594 C 32.375 22.625 32.375 22.816406 32.402344 23.007812 Z M 32.402344 30.523438 L 32.402344 31.980469 C 32.402344 34.960938 33.175781 37.226562 34.632812 38.703125 C 36.085938 40.175781 38.023438 40.644531 39.691406 40.644531 C 41.359375 40.644531 43.296875 40.175781 44.75 38.703125 C 45.316406 38.140625 45.496094 37.296875 45.207031 36.554688 C 45.105469 36.8125 44.949219 37.046875 44.75 37.246094 C 43.296875 38.71875 41.359375 39.1875 39.691406 39.1875 C 38.023438 39.1875 36.085938 38.71875 34.632812 37.246094 C 33.175781 35.769531 32.402344 33.503906 32.402344 30.523438 Z M 32.402344 30.523438 "/>
<path style=" stroke:none;fill-rule:nonzero;fill:rgb(93.333334%,93.333334%,93.333334%);fill-opacity:1;" d="M 23.816406 22.316406 C 19.8125 22.316406 16.527344 25.601562 16.527344 29.605469 L 16.527344 30.941406 C 16.527344 26.9375 19.8125 23.652344 23.816406 23.652344 C 27.820312 23.652344 31.105469 26.9375 31.105469 30.941406 L 31.105469 29.605469 C 31.105469 25.601562 27.820312 22.316406 23.816406 22.316406 Z M 20.519531 32.253906 L 20.519531 33.589844 C 20.519531 35.449219 21.953125 36.882812 23.816406 36.882812 C 25.675781 36.882812 27.109375 35.449219 27.109375 33.589844 L 27.109375 32.253906 C 27.109375 34.113281 25.675781 35.546875 23.816406 35.546875 C 21.953125 35.546875 20.519531 34.113281 20.519531 32.253906 Z M 20.519531 32.253906 "/>
<path style=" stroke:none;fill-rule:nonzero;fill:rgb(87.843138%,87.843138%,87.843138%);fill-opacity:1;" d="M 34.367188 11.707031 C 33.265625 11.722656 32.386719 12.628906 32.402344 13.730469 L 32.402344 21.382812 C 32.375 21.574219 32.375 21.765625 32.402344 21.957031 L 32.402344 30.929688 C 32.402344 33.910156 33.175781 36.175781 34.632812 37.652344 C 36.085938 39.125 38.023438 39.59375 39.691406 39.59375 C 41.359375 39.59375 43.296875 39.125 44.75 37.652344 C 45.261719 37.144531 45.464844 36.402344 45.277344 35.707031 C 45.089844 35.015625 44.542969 34.472656 43.84375 34.296875 C 43.148438 34.117188 42.40625 34.328125 41.910156 34.84375 C 41.378906 35.382812 40.667969 35.601562 39.691406 35.601562 C 38.714844 35.601562 38.003906 35.382812 37.472656 34.84375 C 36.945312 34.308594 36.394531 33.242188 36.394531 30.929688 L 36.394531 23.664062 L 42.335938 23.664062 C 43.054688 23.671875 43.722656 23.292969 44.082031 22.671875 C 44.445312 22.050781 44.445312 21.285156 44.082031 20.664062 C 43.722656 20.042969 43.054688 19.664062 42.335938 19.671875 L 36.394531 19.671875 L 36.394531 13.730469 C 36.402344 13.191406 36.191406 12.671875 35.8125 12.289062 C 35.429688 11.90625 34.910156 11.695312 34.367188 11.707031 Z M 34.367188 11.707031 "/>
<path style=" stroke:none;fill-rule:nonzero;fill:rgb(93.333334%,93.333334%,93.333334%);fill-opacity:1;" d="M 34.367188 11.707031 C 33.265625 11.722656 32.386719 12.628906 32.402344 13.730469 L 32.402344 15.09375 C 32.386719 13.992188 33.265625 13.085938 34.367188 13.070312 C 34.910156 13.0625 35.429688 13.269531 35.8125 13.652344 C 36.191406 14.035156 36.402344 14.554688 36.394531 15.09375 L 36.394531 13.730469 C 36.402344 13.191406 36.191406 12.671875 35.8125 12.289062 C 35.429688 11.90625 34.910156 11.695312 34.367188 11.707031 Z M 36.394531 19.671875 L 36.394531 21.035156 L 42.335938 21.035156 C 43.183594 21.027344 43.945312 21.554688 44.234375 22.351562 C 44.457031 21.734375 44.363281 21.050781 43.984375 20.515625 C 43.609375 19.980469 42.992188 19.664062 42.335938 19.671875 Z M 32.402344 21.382812 C 32.375 21.574219 32.375 21.765625 32.402344 21.957031 Z M 36.394531 30.929688 L 36.394531 32.292969 C 36.394531 34.605469 36.945312 35.671875 37.472656 36.210938 C 38.003906 36.746094 38.714844 36.964844 39.691406 36.964844 C 40.667969 36.964844 41.378906 36.746094 41.910156 36.210938 C 42.386719 35.714844 43.085938 35.5 43.761719 35.640625 C 44.433594 35.785156 44.988281 36.265625 45.222656 36.910156 C 45.542969 36.027344 45.199219 35.039062 44.398438 34.539062 C 43.601562 34.042969 42.5625 34.167969 41.910156 34.84375 C 41.378906 35.382812 40.667969 35.601562 39.691406 35.601562 C 38.714844 35.601562 38.003906 35.382812 37.472656 34.84375 C 36.945312 34.308594 36.394531 33.242188 36.394531 30.929688 Z M 36.394531 30.929688 "/>
<path style="fill:none;stroke-width:3;stroke-linecap:round;stroke-linejoin:round;stroke:rgb(12.941177%,12.941177%,12.941177%);stroke-opacity:1;stroke-miterlimit:4;" d="M 190.513057 -36.485797 C 158.484865 -36.485797 132.206125 -10.207057 132.206125 21.821135 L 132.206125 43.006612 C 132.206125 75.034803 158.484865 101.313544 190.513057 101.313544 C 199.949656 101.313544 208.917549 99.001264 216.854291 94.939152 L 216.854291 169.994485 C 216.791797 175.743936 219.822758 181.087176 224.791034 183.993148 C 229.759309 186.899121 235.914971 186.899121 240.883247 183.993148 C 245.851522 181.087176 248.882483 175.743936 248.819989 169.994485 L 248.819989 21.821135 C 248.819989 -10.207057 222.541248 -36.485797 190.513057 -36.485797 Z M 190.513057 -4.5201 C 205.386637 -4.5201 216.854291 6.947555 216.854291 21.821135 L 216.854291 43.006612 C 216.854291 57.880191 205.386637 69.347846 190.513057 69.347846 C 175.60823 69.347846 164.140575 57.880191 164.140575 43.006612 L 164.140575 21.821135 C 164.140575 6.947555 175.60823 -4.5201 190.513057 -4.5201 Z M 190.513057 -4.5201 " transform="matrix(0.125012,0,0,0.125012,0,26.877566)"/>
<path style="fill:none;stroke-width:3;stroke-linecap:round;stroke-linejoin:round;stroke:rgb(12.941177%,12.941177%,12.941177%);stroke-opacity:1;stroke-miterlimit:4;" d="M 274.911247 -121.352693 C 266.099589 -121.227705 259.06901 -113.978397 259.193998 -105.166739 L 259.193998 -43.953834 C 258.975269 -42.42273 258.975269 -40.891627 259.193998 -39.360523 L 259.193998 32.413873 C 259.193998 56.255346 265.380907 74.378616 277.036044 86.189988 C 288.659934 97.970113 304.158454 101.719755 317.50093 101.719755 C 330.843406 101.719755 346.341926 97.970113 357.965816 86.189988 C 362.059175 82.127876 363.68402 76.190943 362.184163 70.628974 C 360.684306 65.098252 356.309724 60.754917 350.716508 59.348801 C 345.154539 57.911438 339.217606 59.598777 335.249235 63.723383 C 330.999641 68.035471 325.312684 69.785304 317.50093 69.785304 C 309.689176 69.785304 304.002219 68.035471 299.752625 63.723383 C 295.534278 59.442542 291.128449 50.912107 291.128449 32.413873 L 291.128449 -25.705577 L 338.65516 -25.705577 C 344.404611 -25.643083 349.747851 -28.674043 352.622576 -33.642319 C 355.528549 -38.610594 355.528549 -44.735009 352.622576 -49.703285 C 349.747851 -54.671561 344.404611 -57.702521 338.65516 -57.640027 L 291.128449 -57.640027 L 291.128449 -105.166739 C 291.190943 -109.478827 289.503604 -113.63468 286.472643 -116.696887 C 283.410436 -119.759095 279.254583 -121.446434 274.911247 -121.352693 Z M 274.911247 -121.352693 " transform="matrix(0.125012,0,0,0.125012,0,26.877566)"/>
</g>
</svg>
